src/img/icons/status-maintenance.svg

<svg width="32" height="32" viewBox="0 0 32 32" fill="none" xmlns="http://www.w3.org/2000/svg">
<path d="M10.5422 28.8977C12.246 29.6326 14.0662 30 16.0026 30C17.9388 30 19.7584 29.6324 21.4615 28.8973C23.1646 28.1619 24.646 27.1641 25.9057 25.9039C27.1655 24.6437 28.1628 23.1616 28.8977 21.4578C29.6326 19.754 30 17.9338 30 15.9974C30 14.0612 29.6324 12.2416 28.8973 10.5385C28.1619 8.83544 27.1641 7.35402 25.9039 6.09426C24.6437 4.83451 23.1616 3.83719 21.4578 3.10231C19.754 2.36744 17.9338 2 15.9974 2C14.0612 2 12.2416 2.36756 10.5385 3.10268C8.83544 3.83805 7.35402 4.83586 6.09426 6.09611C4.83451 7.35635 3.83719 8.83839 3.10232 10.5422C2.36744 12.246 2 14.0662 2 16.0026C2 17.9388 2.36756 19.7584 3.10268 21.4615C3.83805 23.1646 4.83586 24.646 6.09611 25.9057C7.35635 27.1655 8.83839 28.1628 10.5422 28.8977Z" fill="#FFCC2C"/>
<path d="M21.5713 23.4001L23.2934 21.6772C23.4311 21.5402 23.5 21.3803 23.5 21.1976C23.5 21.0149 23.4311 20.8545 23.2934 20.7165L17.9883 15.3865C18.1147 15.1071 18.2096 14.8157 18.2729 14.5124C18.3363 14.2091 18.3679 13.8714 18.3679 13.4994C18.3679 12.1501 17.8874 10.9963 16.9264 10.0378C15.9654 9.07926 14.8087 8.60001 13.4564 8.60001C13.2132 8.60001 12.9811 8.61229 12.7602 8.63684C12.539 8.6614 12.3181 8.71334 12.0974 8.79267C11.8988 8.87199 11.7773 9.02032 11.7329 9.23766C11.6887 9.45475 11.743 9.6398 11.896 9.7928L14.5073 12.4197L12.3319 14.596L9.69225 11.9691C9.53933 11.8161 9.35424 11.7619 9.137 11.8063C8.92 11.8508 8.7699 11.9737 8.68668 12.1751C8.62433 12.3988 8.57769 12.6225 8.54676 12.8462C8.51559 13.07 8.5 13.3028 8.5 13.5447C8.5 14.8976 8.98039 16.0548 9.94116 17.0162C10.9022 17.9774 12.0588 18.458 13.4111 18.458C13.7575 18.458 14.0839 18.424 14.3902 18.356C14.6968 18.288 14.9992 18.1955 15.2975 18.0786L20.625 23.3858C20.763 23.5238 20.9207 23.5951 21.0982 23.5998C21.2757 23.6044 21.4334 23.5379 21.5713 23.4001Z" fill="#131212"/>
</svg>

<svg xmlns="http://www.w3.org/2000/svg" width="32" height="32" fill="none" viewBox="0 0 32 32">
  <path fill="#FFCC2C" d="M10.542 28.898c1.704.735 3.524 1.102 5.46 1.102 1.937 0 3.756-.368 5.46-1.103a14.14 14.14 0 0 0 4.444-2.993 14.14 14.14 0 0 0 2.992-4.446c.735-1.704 1.102-3.524 1.102-5.46 0-1.937-.368-3.756-1.103-5.46a14.14 14.14 0 0 0-2.993-4.444 14.14 14.14 0 0 0-4.446-2.992C19.754 2.367 17.934 2 15.998 2c-1.937 0-3.756.368-5.46 1.103a14.14 14.14 0 0 0-4.444 2.993 14.14 14.14 0 0 0-2.992 4.446C2.367 12.246 2 14.066 2 16.002c0 1.937.368 3.756 1.103 5.46a14.138 14.138 0 0 0 2.993 4.444 14.14 14.14 0 0 0 4.446 2.992Z"/>
  <path fill="#131212" d="m21.571 23.4 1.722-1.723a.66.66 0 0 0 0-.96l-5.305-5.33c.127-.28.222-.571.285-.875.063-.303.095-.64.095-1.013 0-1.349-.48-2.503-1.442-3.461-.96-.959-2.117-1.438-3.47-1.438-.243 0-.475.012-.696.037a2.902 2.902 0 0 0-.663.156.572.572 0 0 0-.364.445.577.577 0 0 0 .163.555l2.611 2.627-2.175 2.176-2.64-2.627a.577.577 0 0 0-.555-.163.586.586 0 0 0-.45.37 5.098 5.098 0 0 0-.187 1.369c0 1.353.48 2.51 1.441 3.471.961.961 2.118 1.442 3.47 1.442.347 0 .673-.034.98-.102a6.09 6.09 0 0 0 .906-.277l5.328 5.307c.138.138.296.21.473.214a.627.627 0 0 0 .473-.2Z"/>
</svg>
